archdroid-icon-theme/Archdroid-Lime/apps/scalable/gnome-panel-workspace-switcher.svg

<svg fill="#CDDC39" height="48" viewBox="0 0 48 48" width="48" xmlns="http://www.w3.org/2000/svg"><g fill="#CDDC39" stroke-width="3"><path d="m8 4c-2.216 0-4 1.784-4 4v15 2 15c0 2.216 1.784 4 4 4h15 2 15c2.216 0 4-1.784 4-4v-32c0-2.216-1.784-4-4-4h-15-2zm0 4h15v15h-15zm17 0h15v15h-15zm-17 17h15v15h-15zm17 0h15v15h-15z"/><path d="m8 8h15v15h-15z" opacity=".3"/></g></svg>

<svg fill="#CDDC39" height="48" version="1.1" viewBox="0 0 48 48" width="48" xmlns="http://www.w3.org/2000/svg"><g><path d="M8 4C5.784 4 4 5.784 4 8L4 23 4 25 4 40C4 42.216 5.784 44 8 44L23 44 25 44 40 44C42.216 44 44 42.216 44 40L44 8C44 5.784 42.216 4 40 4L25 4 23 4 8 4zM8 8L23 8 23 23 8 23 8 8zM25 8L40 8 40 23 25 23 25 8zM8 25L23 25 23 40 8 40 8 25zM25 25L40 25 40 40 25 40 25 25z" fill="#CDDC39" stroke-width="3"/><path d="M8 8H23V23H8Z" fill="#CDDC39" opacity=".3" stroke-width="3"/></g></svg>
